X:1
T:Telz menus plaids
T:Claude Goudimel
T:Source : Livre V de 25 chansons nouvelles à 4 parties---Paris---N.du Chemin---1550. Editor : André Vierendeels (09/03/18) Notes : Original clefs : G2, C2, C3, C4 Original note values have been halved Editorial accidentals above the stave
T:#
T:Telz menus plaids
T:©
T:©
T:©
C:Claude Goudimel
Z:©
%%score [ 1 2 3 4 ]
L:1/8
Q:1/4=120
M:2/2
K:C
V:1 treble nm="Soprano" snm="S"
V:2 treble nm="Alto" snm="A"
V:3 treble-8 nm="Tenor" snm="T"
V:4 bass nm="Bass" snm="B"
V:1
 G4 A4 | G4 G2 e2 | d2 c2 B2 A2- | A2 G4 F2 | G4 z4 | G4 A2 B2 | c6 B2 | A2 G2 FEFG | ABcA Bc d2- | %9
w: Telz me-|nus plaids con-|fer- ment les a-||mours,|de ceulx qui|sont de|fol plai- sir _ _ _|_ _ _ _ _ _ _|
w: Et leurs|de- duitz ne|du- re pas tous-||iours,|car in- con-|stans sont|en a- mours, _ _ _|_ _ _ _ _ _ _|
 dcBA G2 c2 | B2 A3 G G2- | G2 F2 G4 :| e8 | d4 c4 | B2 e2 e2 e2 | c2 d2 e2 e2 | c3 B c2 d2 | %17
w: * * * * at- *||* * teintz,|Mais|vrais a-|mans, qui ont leurs|coeurs con- iointz, par|cha- * * ste-|
w: |* et _ _|_ _ vains:||||||
 e2 e2 d2 c2 | B2 g2 f2 e2 | d2 e2 e2 dc | Bc d3 c c2- | c2 B2 c2 g2 | f2 e2 d2 f2 | e2 d2 c2 e2 | %24
w: té, et loy- aul-|té pu- di- *|que, et loy- aul- *|té _ pu- * di-|* * que, s'ai-|ment tous- iours sans|guer- re, et sans|
w: |||||||
 d2 c4 B2 | c2 c2 cBAG | A2 A2 G2 G2 | G2 G2 F2 F2 | E2 e2 e4- | e2 e2 f4 | d2 d2 e3 d | c2 B2 A4 | %32
w: pic- * *|que, car tel _ _ _|_ a- mour n'est|ia- mais im- per-|faict, mais il|_ pro- ce-|de d'un vou- loir|im- pu- dic-|
w: ||||||||
 G2 c2 c2 c2 |: A4 z2 A2 | d3 c B2 A2- | A2 G4 F2 | G4 z2 c2 |1[M:2/4] c2 c2 :|2[M:2/2] A2 G4 F2 || %39
w: que, tel fol a-|mour, sans|guer- * * re|_ n'est per-|faict tel|fol a-|(re) n'est per-|
w: |||||||
 G8 |] %40
w: faict.|
w: |
V:2
 E4 F4 | D4 E2 E2 | A2 G2 F3 E | D2 C2 D2 D2 | D4 z4 | z2 C2 C2 B,2 | A,2 C2 G2 G2 | E2 E2 A4- | %8
w: Telz me-|nus plaids, telz|me- nus plaidz con-|fer- ment les a-|mours,|de ceulx qui|sont, de ceux qui|sont de fol|
w: Et leurs|de- duitz, et|leurs de- duictz ne|du- re pas tous-|iours,|car in- con|stans, car in- con-|stans sont en|
 A2 G2 G2 G2 | A2 G2 G2 G2 | F6 E2 | D4 D4 :| G8 | G4 EDEF | G2 G2 c2 c2 | c2 B2 G2 G2 | %16
w: _ plai- sir at-|taintz, de fol plai-|sir _|at- taintz,|Mais|vrais a- * * *|mans qui ont leurs|coeurs con ioinctz, qui|
w: _ a- mours et|vains, sont en a-|mours _|et vains:|||||
 G2 G2 F2 F2 | E2 E2 A2 A2 | G4 z2 G2 | G2 G2 E2 F2 | G2 D4 G2- | GF G2 E2 E2 | D2 C2 D2 C2 | %23
w: ont leurs coeurs con-|ioinctz par cha- ste-|té, et|loy- aul- té pu-|dic- * *|* * * que, s'ai-|ment tous- iours sans|
w: |||||||
 C2 B,2 C4 | z2 G2 G2 G2 | G2 E2 F2 FF | F2 F2 E2 E2 | E2 C2 D2 D2 | G,2 G2 c4- | c2 c2 c4 | %30
w: guer- * re,|et sans pic-|* * * que, car|tel a- mour n'est|ia- mais im- per|faict, mais il|_ pro- ce-|
w: |||||||
 B2 G2 G2 E2 | E2 E2 F4 | E3 D C4 |: z2 F2 F2 F2 | D4 z2 D2 | E2 E2 D2 D2 | B,2 E2 E2 E2 |1 %37
w: de d'un vou- loir|im- pu- dic-|* * que,|tel fol a-|mour sans|guer- re n'est per-|faict, tel fol a-|
w: |||||||
[M:2/4] C4 :|2[M:2/2] E2 E2 D2 D2 || D8 |] %40
w: mour,|guer- re n'est per-|faict.|
w: |||
V:3
 c4 A2 c2- | c2 B2 c2 g2 | f2 e2 d3 c | B2 G2 A2 A2 | G4 z2 d2 | e4 c2 d2 | f4 e2 d2 | c4 z2 f2 | %8
w: Telz me- nus|_ plaids, telz me-|nus plaidz con- *|fer- ment le a-|mours, de|ceulx qui sont|de fol plai-|sir, qui|
w: Et leurs de-|* duitz ne du-|re pas tous- *||iours, car|in- con- stans|sont en a-|mours, car|
 f2 e2 d2 d2 | f2 d2 e4 | d4 c2 B2 | A4 G4 :| c8 | B4 c4 | d2 e2 g2 g2 | f2 f2 e2 c2 | %16
w: sont de fol plai-|sir at- *||* taintz,|Mais|vrais a-|mans, qui ont leurs|coeurs con- ioinctz, qui|
w: in- con- stans sont|en a- *|mours et _|_ vains:|||||
 c2 G2 A2 B2 | c2 g2 f2 e2 | d2 d2 c2 c2 | d2 B2 c2 cc | d2 g2 f2 e2 | d4 c4 | z2 g2 g2 f2 | %23
w: ont leurs coeurs con-|ioinctz, par chas- te-|té, et loy- aul-|té pu- dic- que, et|loy- aul- té pu-|dic- que,|s'ai- ment tous-|
w: |||||||
 g3 g e2 g2 | f2 e2 d4 | c2 G2 A4 | c4 c2 c2 | B2 G2 A2 B2 | c2 c2 c2 g2 | e2 e2 a4 | g3 f e2 A2- | %31
w: iours sans guer- r'et|sans pic- que,|car tel a-|mour n'est ia-|mais im- per- faict,|mais s'il pro- ce-|de d'un vou-|loir _ _ im-|
w: ||||||||
 A2 B2 c2 c2 | c2 c2 A4 |: A4 d3 c | B2 A2 G2 A2 | B2 c2 A2 A2 | G2 c2 c2 c2 |1[M:2/4] A4 :|2 %38
w: * pu- dic- que,|tel fol a-|mour, sans _|_ guer- * re|n'est _ _ per-|* faict, tel fol|a-|
w: |||||||
[M:2/2] B2 c2 A2 A2 || G8 |] %40
w: n'est _ _ per-|faict.|
w: ||
V:4
 C,4 F,4 | G,4 C,4 | z2 C,2 D,2 F,2 | G,2 E,2 D,4 | z2 G,2 A,2 B,2 | C3 B, A,2 G,2 | F,2 A,2 G,4 | %7
w: Telz me-|nus plaids,|con- fer- ment|les a- mours,|de ceulx qui|sont de fol plai-|sir at- taintz,|
w: Et leurs|de- duictz|ne du- re|pas tous- iours,|car in- con-|stans _ _ sont|en a- mours,|
 z2 C,2 D,2 D,2 | F,2 C,2 G,2 G,2 | F,2 G,2 C,2 C,2 | D,3 E, F,2 G,2 | D,4 G,4 :| C,8 | G,4 A,4 | %14
w: qui sont de|fol plai- sir at-|taintz, de fol plai-|sir _ _ at-|* taintz,|mais|vrais a-|
w: car in- con-|stans sont en a-|mours, et vains, sont|en a- mours et-|* vains,|||
 G,2 C2 C2 C2 | A,2 B,2 C2 C,2 | C,2 C,2 F,2 D,2 | C,2 E,2 F,2 F,2 | G,2 G,2 A,2 C2 | B,2 G,2 A,4 | %20
w: mans qui ont leurs|coeurs con- ioinctz, qui|ont leurs coeurs con-|ioinctz, par cha- ste-|té, et lou- aul-|té pu- dic-|
w: ||||||
 G,3 A, B,2 C2 | G,4 C,4 | z2 C2 B,2 A,2 | C2 G,2 A,2 E,2 | F,2 C,2 G,4 | C,2 C,2 F,4 | %26
w: |* que,|s'ai- ment tous-|iours sans guer- r'et|sans pic- que,|car tel a-|
w: ||||||
 F,4 C,2 C,2 | E,2 E,2 D,2 D,2 | C,4 z2 C2 | C2 C2 F,4 | G,2 G,2 C3 B, |"^#" A,2 G,2 F,4 | %32
w: mour n'est ia-|mais im- per- faict,|mais s'il|pro- ce- de|d'un vou- loir _|im- pu- dic-|
w: ||||||
 C,4 z2 F,2 |: F,2 F,2 D,4 |"^#" z2 D,2 G,2 F,2 | E,2 C,2 D,4 | z8 |1[M:2/4] z2 F,2 :|2 %38
w: que, tel|fol a- mour,|sans guer- re|n'est per- faict,||tel|
w: ||||||
[M:2/2] E,2 C,2 D,4 || G,8 |] %40
w: n'est _ per-|faict.|
w: ||

